svgs/sharp-light/typewriter.svg

<svg xmlns="http://www.w3.org/2000/svg" viewBox="0 0 512 512"><!--! Font Awesome Pro 6.4.0 by @fontawesome - https://fontawesome.com License - https://fontawesome.com/license (Commercial License) Copyright 2023 Fonticons, Inc. --><path d="M64 0V16 160H96V32H369.4L416 78.6V160h32V72 65.4l-4.7-4.7-56-56L382.6 0H376 80 64zM333.3 256l9.4-9.4L365.3 224H480v64H448 64 32V224H146.7l22.6 22.6 9.4 9.4H192 320h13.3zM480 320h32V288 224 192H480 352l-32 32H192l-32-32H32 0v32 64 32H32V480v32H64 448h32V480 320zm-32 0V480H64V320H448zM160 416H144v32h16H352h16V416H352 160zm-48-64v32h32V352H112zm96 32V352H176v32h32zm32-32v32h32V352H240zm96 32V352H304v32h32zm32-32v32h32V352H368z"/></svg>

<svg xmlns="http://www.w3.org/2000/svg" viewBox="0 0 512 512"><!--! Font Awesome Pro 6.6.0 by @fontawesome - https://fontawesome.com License - https://fontawesome.com/license (Commercial License) Copyright 2024 Fonticons, Inc. --><path d="M64 0l0 16 0 144 32 0L96 32l273.4 0L416 78.6l0 81.4 32 0 0-88 0-6.6-4.7-4.7-56-56L382.6 0 376 0 80 0 64 0zM333.3 256l9.4-9.4L365.3 224 480 224l0 64-32 0L64 288l-32 0 0-64 114.7 0 22.6 22.6 9.4 9.4 13.3 0 128 0 13.3 0zM480 320l32 0 0-32 0-64 0-32-32 0-128 0-32 32-128 0-32-32L32 192 0 192l0 32 0 64 0 32 32 0 0 160 0 32 32 0 384 0 32 0 0-32 0-160zm-32 0l0 160L64 480l0-160 384 0zM160 416l-16 0 0 32 16 0 192 0 16 0 0-32-16 0-192 0zm-48-64l0 32 32 0 0-32-32 0zm96 32l0-32-32 0 0 32 32 0zm32-32l0 32 32 0 0-32-32 0zm96 32l0-32-32 0 0 32 32 0zm32-32l0 32 32 0 0-32-32 0z"/></svg>
